X: 36
T:Johnny Mickey Barry's
T:Johnny Mickey Barry's
M:4/4
L:1/8
R:Reel
O:Ireland
K:G
G2B2 DEFD|G2GG G2e2|d2B2 A2G2|dedB A2G2|\
G2B2 DEFD|G2GG G2e2|d2B2 ABcA|B2G2 G4::\
BcdA BcdA|z2(g2 g2)ee|d2B2 A2G2|dedB A2G2|\
BcdA BcdA|z2(g2 g2)ee|d2B2 A2cA|B2G2 G4:|
